X: 1770
T: Omai
C:Campbell, 1787 "Omai, A Trip 'Round the World"
B: australian traditional tunes wiki
M:4/4
L:1/8
R: Reel
Q: 1/4=100
K:Dm
V:1 
"Dm"D>e "A"d^c "Dm"Ddde|"F"fdcA "C"FGEC|"Dm"ded^c Ddde|"F"fd f/e/d/^c/ "Dm"d2d2:|
|:"Dm"fd a/b/a/g/ "C"ec g/a/g/f/|"Dm"de/f/ g/f/ue/ud/ "A"^c/d/ue/uc/A2|"Dm"F>G FE Ddde|"F"fd"A"^cA"Dm"d2D2:|
% abcbook-tune_id 6342d53a940ff9be919c34e5


% abcbook-boost 0
% abcbook-tablature 
% abcbook-transpose 
% abcbook-lastupdated 1665324382765
% abcbook-soundfonts 
% abcbook-repeats 1
% NFF Book 2020
% Bush Traditions recording played by Roland Clarke

